X:239
T: Die Knigskinder (16a)
N: T0127
O: Luxemburg
S: Singendes Volk, Esch-Alzette 1937 posth.]
N: Junglinster, fff Susanna Minden (gelernt von Katarina Bofferding-Nilles,
N: 932
R: Liebeslieder]
M: 6/8
L: 1/8
K: G
D | BBAG2D | E2DD2
D | AAAADA | B3z2
D | BBBddd | c2EE2
E | DDcBBA | B3z2
D | BBBddd | c2EE2
E | DDcBBA | G3z2

@@@ Tune index: 8293
